X: 257
T: 258. Mein' Augen schlie\ss ich jetzt
N: Derived from chor258.krn
C: Johann Sebastian Bach
%%abc-version 2.0
%%abcx-abcm2ps-target-version 5.9.1 (29 Sep 2008)
%%abc-creator hum2abc beta
%%abcx-conversion-date 2019/03/11 17:28:19
%%abc-edited-by Craig Stuart Sapp
%%humdrum-veritas 354954874
%%humdrum-veritas-data 3500214478
%%
%%barnumbers 0
L: 1/4
M: C
%%staves [1 2 3 4]
V: 1 clef=treble
V: 2 clef=treble
V: 3 clef=treble-8
V: 4 clef=bass
K: G
[V:1] G [I:setbarnb 1]| 
[V:2] D | 
[V:3] B/A/ | 
[V:4] G,,/A,,/ | 
[V:1] GDGA | 
[V:2] DA,DE/F/ | 
[V:3] GFGc | 
[V:4] B,,/C,/ D,/C,/B,,A,, | 
[V:1] !fermata!B2zd | 
[V:2] !fermata!G2xG- | 
[V:3] !fermata!d2xd | 
[V:4] !fermata!G,,2zB,, | 
[V:1] edc3/d/ | 
[V:2] G/F/G-G/F//E//F | 
[V:3] cde/d//c//d | 
[V:4] C,3/B,,/A,,D,, | 
[V:1] !fermata!B2zd | 
[V:2] !fermata!G2xG- | 
[V:3] !fermata!d2xB | 
[V:4] !fermata!G,,2zG,, | 
[V:1] cBAG | 
[V:2] G/F/G-G/F/ G/G,/ | 
[V:3] cdd3/^c/ | 
[V:4] A,,B,,/C,/D,E, | 
[V:1] !fermata!A2zB | 
[V:2] !fermata!D2xF | 
[V:3] !fermata!f2xB | 
[V:4] !fermata!D,2z^D, | 
[V:1] GcBA | 
[V:2] F/E//F// G/A/- A/G/ G/F/ | 
[V:3] Be/=d/dd3//c// | 
[V:4] E,3/F,/G,=D, | 
[V:1] !fermata!G2zB/c/ | 
[V:2] !fermata!D2xG | 
[V:3] !fermata!B2xd | 
[V:4] !fermata!G,,2zG,,/A,,/ | 
[V:1] ddcB | 
[V:2] GGG/F/G | 
[V:3] d/c/Bcd | 
[V:4] B,,3/E,/A,,B,,/C,/ | 
[V:1] !fermata!A2zB | 
[V:2] G!fermata!FxF | 
[V:3] !fermata!d2xB | 
[V:4] !fermata!D,2z^D, | 
[V:1] GGAB | 
[V:2] EDEE | 
[V:3] B/c/dcB- | 
[V:4] E,/=D,/ C,/B,,/ C,/B,,/A,,/^G,,/ | 
[V:1] c2!fermata!Bd | 
[V:2] E2!fermata!ED/=F/ | 
[V:3] B/A//^G//AA/!fermata!^G/G | 
[V:4] A,,/B,,/C,/D,/!fermata!E,B,, | 
[V:1] cABc | 
[V:2] E/G^F/GG | 
[V:3] Gdde | 
[V:4] C,D,G,/F,/E, | 
[V:1] !fermata!d2zG | 
[V:2] !fermata!G2xE- | 
[V:3] !fermata!d2xB | 
[V:4] !fermata!B,,2zE,/D,/ | 
[V:1] ABcB | 
[V:2] E/F/G-G/F/G | 
[V:3] c/d/ d/e//d//cd | 
[V:4] C,B,,/E,/A,,B,,/G,,/ | 
[V:1] A2!fermata!G |]  
[V:2] G/F//E//F!fermata!D |]  
[V:3] ed3//c//!fermata!B |]  
[V:4] C,D,!fermata!G,, |]  



